app/images/icons/storage.svg

<svg xmlns="http://www.w3.org/2000/svg" width="42" height="41" viewBox="0 0 42 41"><defs><style>.cls-1{fill:#fff;fill-rule:evenodd}</style></defs><path id="Forma_1" data-name="Forma 1" class="cls-1" d="M697.35 631.169a3.128 3.128 0 1 0 3.15 3.128 3.143 3.143 0 0 0-3.15-3.128zm0 4.865a1.738 1.738 0 1 1 1.75-1.737 1.745 1.745 0 0 1-1.75 1.737zm27.65-3.475a.7.7 0 1 1-.7.7.7.7 0 0 1 .7-.7zm-2.8 0a.7.7 0 1 1-.7.7.7.7 0 0 1 .7-.7zm4.2 2.085a.7.7 0 1 1-.7.7.7.7 0 0 1 .7-.7zm-2.8 0a.7.7 0 1 1-.7.7.7.7 0 0 1 .7-.7zm-4.2-2.085a.7.7 0 1 1-.7.7.7.7 0 0 1 .7-.7zm1.4 2.085a.7.7 0 1 1-.7.7.7.7 0 0 1 .7-.7zm-4.2-2.085a.7.7 0 1 1-.7.7.7.7 0 0 1 .7-.7zm1.4 2.085a.7.7 0 1 1-.7.7.7.7 0 0 1 .7-.7zm-4.2-2.085a.7.7 0 1 1-.7.7.7.7 0 0 1 .7-.7zm1.4 2.085a.7.7 0 1 1-.7.7.7.7 0 0 1 .7-.7zm16.8 3.747V630.2a3.217 3.217 0 0 0-3.226-3.2h-35.548a3.217 3.217 0 0 0-3.226 3.2v8.188a3.149 3.149 0 0 1 0 5.015v8.189a3.149 3.149 0 0 1 0 5.015v8.193a3.218 3.218 0 0 0 3.226 3.2h35.548a3.217 3.217 0 0 0 3.226-3.2v-8.189a3.148 3.148 0 0 1 0-5.015v-8.189a3.148 3.148 0 0 1 0-5.016zm-1.4 18.218v8.191a1.821 1.821 0 0 1-1.826 1.812h-35.548a1.82 1.82 0 0 1-1.826-1.812v-8.189a1.821 1.821 0 0 1 1.826-1.812h35.548a1.821 1.821 0 0 1 1.826 1.81zm0-13.2v8.189a1.821 1.821 0 0 1-1.826 1.812h-35.548a1.82 1.82 0 0 1-1.826-1.812v-8.189a1.821 1.821 0 0 1 1.826-1.812h35.548a1.821 1.821 0 0 1 1.826 1.808zm-37.374-3.2a1.821 1.821 0 0 1-1.826-1.812V630.2a1.821 1.821 0 0 1 1.826-1.812h35.548a1.821 1.821 0 0 1 1.826 1.812v8.188a1.821 1.821 0 0 1-1.826 1.813h-35.548zm4.124 10.424a3.127 3.127 0 1 0-3.15-3.127 3.142 3.142 0 0 0 3.15 3.121zm0-4.864a1.737 1.737 0 1 1-1.75 1.737 1.745 1.745 0 0 1 1.75-1.743zm27.65 0a.7.7 0 1 1-.7.695.7.7 0 0 1 .7-.701zm-2.8 0a.7.7 0 1 1-.7.695.7.7 0 0 1 .7-.701zm4.2 2.084a.7.7 0 1 1-.7.7.7.7 0 0 1 .7-.706zm-2.8 0a.7.7 0 1 1-.7.7.7.7 0 0 1 .7-.706zm-4.2-2.084a.7.7 0 1 1-.7.695.7.7 0 0 1 .7-.701zm1.4 2.084a.7.7 0 1 1-.7.7.7.7 0 0 1 .7-.706zm-4.2-2.084a.7.7 0 1 1-.7.695.7.7 0 0 1 .7-.701zm1.4 2.084a.7.7 0 1 1-.7.7.7.7 0 0 1 .7-.706zm-4.2-2.084a.7.7 0 1 1-.7.695.7.7 0 0 1 .7-.701zm1.4 2.084a.7.7 0 1 1-.7.7.7.7 0 0 1 .7-.706zm-17.85 15.984a3.128 3.128 0 1 0-3.15-3.128 3.142 3.142 0 0 0 3.15 3.122zm0-4.865a1.738 1.738 0 1 1-1.75 1.737 1.745 1.745 0 0 1 1.75-1.743zm27.65 0a.7.7 0 1 1-.7.695.7.7 0 0 1 .7-.701zm-2.8 0a.7.7 0 1 1-.7.695.7.7 0 0 1 .7-.701zm4.2 2.085a.7.7 0 1 1-.7.695.7.7 0 0 1 .7-.701zm-2.8 0a.7.7 0 1 1-.7.695.7.7 0 0 1 .7-.701zm-4.2-2.085a.7.7 0 1 1-.7.695.7.7 0 0 1 .7-.701zm1.4 2.085a.7.7 0 1 1-.7.695.7.7 0 0 1 .7-.701zm-4.2-2.085a.7.7 0 1 1-.7.695.7.7 0 0 1 .7-.701zm1.4 2.085a.7.7 0 1 1-.7.695.7.7 0 0 1 .7-.701zm-4.2-2.085a.7.7 0 1 1-.7.695.7.7 0 0 1 .7-.701zm1.4 2.085a.7.7 0 1 1-.7.695.7.7 0 0 1 .7-.701z" transform="translate(-690 -627)"/></svg>

<svg xmlns="http://www.w3.org/2000/svg" width="42" height="41" viewBox="0 0 42 41">
  <metadata><?xpacket begin="﻿" id="W5M0MpCehiHzreSzNTczkc9d"?>
<x:xmpmeta xmlns:x="adobe:ns:meta/" x:xmptk="Adobe XMP Core 5.6-c138 79.159824, 2016/09/14-01:09:01        ">
   <rdf:RDF xmlns:rdf="http://www.w3.org/1999/02/22-rdf-syntax-ns#">
      <rdf:Description rdf:about=""/>
   </rdf:RDF>
</x:xmpmeta>
                                                                                                    
                                                                                                    
                                                                                                    
                                                                                                    
                                                                                                    
                                                                                                    
                                                                                                    
                                                                                                    
                                                                                                    
                                                                                                    
                                                                                                    
                                                                                                    
                                                                                                    
                                                                                                    
                                                                                                    
                                                                                                    
                                                                                                    
                                                                                                    
                                                                                                    
                                                                                                    
                           
<?xpacket end="w"?></metadata>
<defs>
    <style>
      .cls-1 {
        fill: #fff;
        fill-rule: evenodd;
      }
    </style>
  </defs>
  <path id="Forma_1" data-name="Forma 1" class="cls-1" d="M697.35,631.169a3.128,3.128,0,1,0,3.15,3.128A3.143,3.143,0,0,0,697.35,631.169Zm0,4.865a1.738,1.738,0,1,1,1.75-1.737A1.745,1.745,0,0,1,697.35,636.034ZM725,632.559a0.7,0.7,0,1,1-.7.7A0.7,0.7,0,0,1,725,632.559Zm-2.8,0a0.7,0.7,0,1,1-.7.7A0.7,0.7,0,0,1,722.2,632.559Zm4.2,2.085a0.7,0.7,0,1,1-.7.7A0.7,0.7,0,0,1,726.4,634.644Zm-2.8,0a0.7,0.7,0,1,1-.7.7A0.7,0.7,0,0,1,723.6,634.644Zm-4.2-2.085a0.7,0.7,0,1,1-.7.7A0.7,0.7,0,0,1,719.4,632.559Zm1.4,2.085a0.7,0.7,0,1,1-.7.7A0.7,0.7,0,0,1,720.8,634.644Zm-4.2-2.085a0.7,0.7,0,1,1-.7.7A0.7,0.7,0,0,1,716.6,632.559Zm1.4,2.085a0.7,0.7,0,1,1-.7.7A0.7,0.7,0,0,1,718,634.644Zm-4.2-2.085a0.7,0.7,0,1,1-.7.7A0.7,0.7,0,0,1,713.8,632.559Zm1.4,2.085a0.7,0.7,0,1,1-.7.7A0.7,0.7,0,0,1,715.2,634.644Zm16.8,3.747V630.2a3.217,3.217,0,0,0-3.226-3.2H693.226A3.217,3.217,0,0,0,690,630.2v8.188a3.149,3.149,0,0,1,0,5.015v8.189a3.149,3.149,0,0,1,0,5.015V664.8a3.218,3.218,0,0,0,3.226,3.2h35.548A3.217,3.217,0,0,0,732,664.8v-8.189a3.148,3.148,0,0,1,0-5.015v-8.189A3.148,3.148,0,0,1,732,638.391Zm-1.4,18.218V664.8a1.821,1.821,0,0,1-1.826,1.812H693.226A1.82,1.82,0,0,1,691.4,664.8v-8.189a1.821,1.821,0,0,1,1.826-1.812h35.548A1.821,1.821,0,0,1,730.6,656.609Zm0-13.2v8.189a1.821,1.821,0,0,1-1.826,1.812H693.226a1.82,1.82,0,0,1-1.826-1.812v-8.189a1.821,1.821,0,0,1,1.826-1.812h35.548A1.821,1.821,0,0,1,730.6,643.405Zm-37.374-3.2a1.821,1.821,0,0,1-1.826-1.812V630.2a1.821,1.821,0,0,1,1.826-1.812h35.548A1.821,1.821,0,0,1,730.6,630.2v8.188a1.821,1.821,0,0,1-1.826,1.813H693.226Zm4.124,10.424a3.127,3.127,0,1,0-3.15-3.127A3.142,3.142,0,0,0,697.35,650.627Zm0-4.864a1.737,1.737,0,1,1-1.75,1.737A1.745,1.745,0,0,1,697.35,645.763Zm27.65,0a0.7,0.7,0,1,1-.7.695A0.7,0.7,0,0,1,725,645.763Zm-2.8,0a0.7,0.7,0,1,1-.7.695A0.7,0.7,0,0,1,722.2,645.763Zm4.2,2.084a0.7,0.7,0,1,1-.7.7A0.7,0.7,0,0,1,726.4,647.847Zm-2.8,0a0.7,0.7,0,1,1-.7.7A0.7,0.7,0,0,1,723.6,647.847Zm-4.2-2.084a0.7,0.7,0,1,1-.7.695A0.7,0.7,0,0,1,719.4,645.763Zm1.4,2.084a0.7,0.7,0,1,1-.7.7A0.7,0.7,0,0,1,720.8,647.847Zm-4.2-2.084a0.7,0.7,0,1,1-.7.695A0.7,0.7,0,0,1,716.6,645.763Zm1.4,2.084a0.7,0.7,0,1,1-.7.7A0.7,0.7,0,0,1,718,647.847Zm-4.2-2.084a0.7,0.7,0,1,1-.7.695A0.7,0.7,0,0,1,713.8,645.763Zm1.4,2.084a0.7,0.7,0,1,1-.7.7A0.7,0.7,0,0,1,715.2,647.847Zm-17.85,15.984a3.128,3.128,0,1,0-3.15-3.128A3.142,3.142,0,0,0,697.35,663.831Zm0-4.865a1.738,1.738,0,1,1-1.75,1.737A1.745,1.745,0,0,1,697.35,658.966Zm27.65,0a0.7,0.7,0,1,1-.7.695A0.7,0.7,0,0,1,725,658.966Zm-2.8,0a0.7,0.7,0,1,1-.7.695A0.7,0.7,0,0,1,722.2,658.966Zm4.2,2.085a0.7,0.7,0,1,1-.7.695A0.7,0.7,0,0,1,726.4,661.051Zm-2.8,0a0.7,0.7,0,1,1-.7.695A0.7,0.7,0,0,1,723.6,661.051Zm-4.2-2.085a0.7,0.7,0,1,1-.7.695A0.7,0.7,0,0,1,719.4,658.966Zm1.4,2.085a0.7,0.7,0,1,1-.7.695A0.7,0.7,0,0,1,720.8,661.051Zm-4.2-2.085a0.7,0.7,0,1,1-.7.695A0.7,0.7,0,0,1,716.6,658.966Zm1.4,2.085a0.7,0.7,0,1,1-.7.695A0.7,0.7,0,0,1,718,661.051Zm-4.2-2.085a0.7,0.7,0,1,1-.7.695A0.7,0.7,0,0,1,713.8,658.966Zm1.4,2.085a0.7,0.7,0,1,1-.7.695A0.7,0.7,0,0,1,715.2,661.051Z" transform="translate(-690 -627)"/>
</svg>
